assets/images/logo.svg

<svg xmlns="http://www.w3.org/2000/svg" width="299.999" height="64.415" viewBox="0 0 75 16.104"><path d="M13.713 14.205c-1.266-1.266-1.899-2.817-1.899-4.653 0-1.836.633-3.387 1.9-4.653 1.265-1.266 2.81-1.9 4.634-1.9 1.824 0 3.372.634 4.644 1.9C24.264 6.165 24.9 7.716 24.9 9.552c0 1.836-.636 3.39-1.908 4.662-1.272 1.26-2.82 1.89-4.644 1.89-1.824 0-3.37-.633-4.635-1.9Zm54.5 1.647v-4.914l-4.301-7.686h2.808l2.736 5.256 2.736-5.256H75l-4.32 7.686v4.914h-2.466Zm-11.74 0v-12.6h2.483v10.224h4.806v2.376h-7.29Zm-5.587 0-4.5-5.904v5.904h-2.484v-12.6h2.484v5.562l4.32-5.562h2.862l-4.662 6.12 4.842 6.48h-2.862ZM0 15.852v-12.6h4.968c1.08 0 1.989.333 2.727.999.738.666 1.107 1.515 1.107 2.547 0 1.044-.396 1.884-1.188 2.52 1.104.636 1.656 1.596 1.656 2.88 0 1.068-.378 1.944-1.134 2.628-.756.684-1.686 1.026-2.79 1.026H0Zm29.469-4.647c-1.266-1.266-1.9-2.817-1.9-4.653 0-1.836.634-3.387 1.9-4.653C30.735.633 32.28 0 34.104 0c1.824 0 3.372.633 4.644 1.899 1.272 1.266 1.908 2.817 1.908 4.653 0 1.836-.636 3.39-1.908 4.662-1.272 1.26-2.82 1.89-4.644 1.89-1.824 0-3.369-.633-4.635-1.899Z" fill="#fff" fill-rule="evenodd" data-name="BOOKLY"/></svg>

<svg id="Logo" xmlns="http://www.w3.org/2000/svg" width="75" height="16.602" viewBox="0 0 75 16.602">
  <path id="BOOKLY" d="M13.713,14.2a6.325,6.325,0,0,1-1.9-4.653,6.327,6.327,0,0,1,1.9-4.653A6.307,6.307,0,0,1,18.348,3,6.5,6.5,0,0,1,24.9,9.552,6.485,6.485,0,0,1,18.348,16.1,6.3,6.3,0,0,1,13.713,14.2Zm54.5,1.647V10.938l-4.3-7.686H66.72l2.736,5.256,2.736-5.256H75l-4.32,7.686v4.914Zm-11.741,0V3.252h2.484V13.476h4.806v2.376Zm-5.586,0-4.5-5.9v5.9H43.9V3.252h2.484V8.814l4.32-5.562h2.862l-4.662,6.12,4.842,6.48ZM0,15.852V3.252H4.968a3.921,3.921,0,0,1,2.727,1A3.28,3.28,0,0,1,8.8,6.8a3.072,3.072,0,0,1-1.188,2.52A3.114,3.114,0,0,1,9.27,12.2a3.385,3.385,0,0,1-1.134,2.628,4.006,4.006,0,0,1-2.79,1.026ZM29.469,11.2a6.33,6.33,0,0,1-1.9-4.653,6.33,6.33,0,0,1,1.9-4.653,6.617,6.617,0,0,1,9.279,0,6.31,6.31,0,0,1,1.908,4.653,6.339,6.339,0,0,1-1.908,4.662,6.628,6.628,0,0,1-9.279-.009Z" transform="translate(0 0)" fill="#fff"/>
  <path id="Path_72" data-name="Path 72" d="M0,.5H9" transform="translate(29.83 15.352)" fill="none" stroke="#fff" stroke-linecap="round" stroke-miterlimit="10" stroke-width="1.5"/>
</svg>
